X:1
T:The Great Escape 
T:Air Cadet March Book
L:1/8
M:4/4
K:Eb
V:1 treble nm="Flute" snm="Fl."
V:1
!f! !>!B4 !>!f2 !>!e!>!f | !>!b2 !>!c'4 z !>!b | !>!=b2 !>!=b2 z2 !>!=b2 | %3
 z2 !>!=b2 z !>!=a !>!_b2 | z8 |"^A" z8 |:!mf! Be- e2 z2 g>f | ec- c2 z4 | f2 fe d2 dc | %9
 BG- G2 z2 GA | Be- e2 z2 g>f | e(c- c2) z4 | f2 fe c2 d"^To Coda"f | e6"^B" z2 :| z4 z2 ef | %15
 g2 gf gf e2 | z4 z2 ef | g2 gf gf e2 | z4 z2 ef | g2 gf gf e2 | f2 fe d2 df | e6 z2 |: z8 | %23
"^D.C. al. Coda" z8 :| !>!B4 !>!f2 !>!e!>!f | !>!b2 !>!c'4 z !>!b | !>!=b2 !>!=b2 z2 !>!=b2 | %27
 z2 !>!=b2 z !>!=a !>!_b2 | z8 |"^A" z8 | Be- e2 z2 g>f | ec- c2 z4 | f2 fe d2 dc | BG- G2 z2 GA | %34
 Be- e2 z2 g>f | e(c- c2) z4 | f2 fe c2 df |"^Coda" e2 e2!<(! =e4!<)! |[K:F]!f! f2 z2 z4 |"^C" z8 | %40
 c!f!f- f2 z2 a>g | fd- d2 z4 | g2 gf e2 ed | cA- A2 z2 AB | cf- f2 z2 a>g | fc- c2 z4 | %46
 g2 gf e2 eg | f2 f2 z2 g2 | f2 f>f f2 z2 |] %49

